X: 1
T: Siemse Berte
T: Blue-Bell Polka
R: shottish, hornpipe
O: trad Ireland
Z: John Chambers <jc@trillian.mit.edu>
M: 2/4
L: 1/16
P: (AABBACC)2A
K: G
(3Bdg \
"A"|: "G"b2b2 "C"gfge | "G"d2d2 B2G2 |1 "D7"FGAB c2e2 | "G"ed^cd B2 (3Bdg \
                                    :|2 "D7"FGAB cdef | "G"g2g2"fine"g2z2 :|
K: D
"B"|: "D"A2A2 FAdf | a2a2 f3f |1 "A7"a2^ga =g2e2 | "D"b2a2 ^g2a2 \
                             :|2 "A7"a2_a2  g2e2 | "D"d2f2d2z2 :|
K: C
"C"|: "C"e2e2 efg2 | e2e2 efg2 |1 "G7"f2f2 fdB2 | fefg feB2 \
                              :|2 "G7"f2f2 fdBd | "C"c2c2c2z2 :|
